(10001)
(COURSERA_PROJECT_01)
(T0  D=1. CR=0. - ZMIN=-1.0751 - FLAT END MILL)
G20
G40
G49
G80
G90

(FACE3)
M5
T0 M6
S3820 M3
G54
G0 B0. C0.
G17
G0 X3.9 Y-0.6994 Z0.6
Z0.2
G94 G1 Z-0.025 F125.8
G18 G3 X3.8 Z-0.125 R0.1
G1 X3.7894
G17 G3 X3.75 Y-0.7388 R0.0394
G2 X3.25 Y-1.2388 R0.5
G1 X-3.25
X-3.4987
G2 X-3.75 Y-0.9875 R0.2513
X-3.25 Y-0.4875 R0.5
G1 X3.25
X3.75
G3 X3.7893 Y-0.4494 R0.0394
G1 X3.8287 Y0.7625
G3 X3.7906 Y0.8031 R0.0394
X3.762 Y0.792 R0.0394
X3.75 Y0.7637 R0.0394
G2 X3.25 Y0.2638 R0.5
G1 X-3.25
X-3.4987
G2 X-3.6764 Y0.3373 R0.2513
X-3.75 Y0.515 R0.2513
X-3.25 Y1.015 R0.5
G1 X3.25
G18 G2 X3.35 Z-0.025 R0.1
G0 Z0.6
G17

(2D CONTOUR1)
S7639 M3
G0 X-0.45 Y-1.4
Z0.6
Z0.2
G1 Z0.0394 F42.
Z-0.2
G19 G3 Y-1.35 Z-0.25 R0.05 F126.1
G1 Y-1.3
G17 G3 X-0.5 Y-1.25 R0.05
G1 X-2.
G2 X-3.125 Y-0.125 R1.125
G1 Y0.125
G2 X-2. Y1.25 R1.125
G1 X2.
G2 X3.125 Y0.125 R1.125
G1 Y-0.125
G2 X2. Y-1.25 R1.125
G1 X0.5
G3 X0.45 Y-1.3 R0.05
G1 Y-1.35
G19 G2 Y-1.4 Z-0.2 R0.05
G0 Z0.6
X0.13 Y-0.715
Z0.2
G1 Z0.0394 F42.
Z-0.7
X0.1303 Y-0.7152 Z-0.7056 F126.1
X0.1311 Y-0.7156 Z-0.7111
X0.1324 Y-0.7164 Z-0.7165
X0.1343 Y-0.7175 Z-0.7217
X0.1366 Y-0.7189 Z-0.7266
X0.1394 Y-0.7205 Z-0.7312
X0.1426 Y-0.7224 Z-0.7354
X0.1462 Y-0.7246 Z-0.7391
X0.1502 Y-0.7269 Z-0.7423
X0.1544 Y-0.7294 Z-0.745
X0.1588 Y-0.732 Z-0.7472
X0.1635 Y-0.7347 Z-0.7487
X0.1683 Y-0.7375 Z-0.7497
X0.1731 Y-0.7404 Z-0.75
X0.2162 Y-0.7658
G17 G3 X0.2846 Y-0.7481 R0.05
G2 X0.5 Y-0.625 R0.25
G1 X2.
G3 X2.5 Y-0.125 R0.5
G1 Y0.125
G3 X2. Y0.625 R0.5
G1 X0.75
Y0.25
G2 X0.25 Y-0.25 R0.5
G1 X-0.25
G2 X-0.75 Y0.25 R0.5
G1 Y0.625
X-1.125
Y-0.625
X-0.5
G2 X-0.25 Y-0.875 R0.25
G1 Y-1.125
G2 X-0.5 Y-1.375 R0.25
G1 X-2.
G2 X-3.25 Y-0.125 R1.25
G1 Y0.125
G2 X-2. Y1.375 R1.25
G1 X2.
G2 X3.25 Y0.125 R1.25
G1 Y-0.125
G2 X2. Y-1.375 R1.25
G1 X0.5
G2 X0.25 Y-1.125 R0.25
G1 Y-0.875
G2 X0.2846 Y-0.7481 R0.25
G3 X0.2899 Y-0.7102 R0.05
X0.2669 Y-0.6796 R0.05
G1 X0.2238 Y-0.6542
X0.219 Y-0.6514 Z-0.7497
X0.2143 Y-0.6486 Z-0.7487
X0.2096 Y-0.6458 Z-0.7472
X0.2052 Y-0.6432 Z-0.745
X0.2009 Y-0.6407 Z-0.7423
X0.197 Y-0.6384 Z-0.7391
X0.1934 Y-0.6363 Z-0.7354
X0.1902 Y-0.6344 Z-0.7312
X0.1874 Y-0.6327 Z-0.7266
X0.185 Y-0.6314 Z-0.7217
X0.1832 Y-0.6303 Z-0.7165
X0.1818 Y-0.6295 Z-0.7111
X0.181 Y-0.629 Z-0.7056
X0.1808 Y-0.6288 Z-0.7
G0 Z0.6

(2D ADAPTIVE1)
G0 X-0.7899 Y0.5734
Z0.6
Z0.2
Z-0.4
G1 Z-0.45 F126.1
X-0.7902 Y0.5735 Z-0.4556
X-0.7911 Y0.5738 Z-0.4611
X-0.7926 Y0.5741 Z-0.4665
X-0.7947 Y0.5747 Z-0.4717
X-0.7973 Y0.5753 Z-0.4766
X-0.8005 Y0.5762 Z-0.4812
X-0.8041 Y0.5771 Z-0.4854
X-0.8081 Y0.5781 Z-0.4891
X-0.8126 Y0.5793 Z-0.4923
X-0.8173 Y0.5805 Z-0.495
X-0.8223 Y0.5818 Z-0.4972
X-0.8275 Y0.5831 Z-0.4987
X-0.8329 Y0.5845 Z-0.4997
X-0.8383 Y0.5859 Z-0.5
G3 X-1.1105 Y0.625 R1.2765
G1 X-1.1238
X-1.1298 Y0.6247
X-1.1354 Y0.6224
X-1.1418 Y0.6189
X-1.1498 Y0.6138
X-1.1593 Y0.6066
X-1.1701 Y0.5969
X-1.1823 Y0.5841
X-1.1957 Y0.5675
X-1.2102 Y0.5461
X-1.2258 Y0.5187
X-1.2424 Y0.4833
X-1.2599 Y0.4366
X-1.2739 Y0.3873
X-1.2848 Y0.3372
X-1.2934 Y0.2867
X-1.3001 Y0.2358
X-1.3054 Y0.1848
X-1.3095 Y0.1337
X-1.3128 Y0.0826
X-1.3153 Y0.0314
X-1.3174 Y-0.0199
X-1.319 Y-0.0711
X-1.3202 Y-0.1224
X-1.3212 Y-0.1736
X-1.322 Y-0.2249
X-1.3227 Y-0.2762
X-1.3231 Y-0.3274
X-1.3235 Y-0.3787
X-1.3238 Y-0.43
X-1.3229 Y-0.4812
X-1.3207 Y-0.5068
X-1.3159 Y-0.5403
X-1.3112 Y-0.5559
X-1.3042 Y-0.5705
X-1.2951 Y-0.584
X-1.284 Y-0.5959
X-1.2714 Y-0.6061
X-1.2573 Y-0.6142
X-1.2422 Y-0.6202
X-1.2263 Y-0.6238
X-1.2101 Y-0.625
X-1.1311
G3 X-1.0829 Y-0.5753 R0.05
G1 X-1.0756 Y0.5747
G3 X-1.1238 Y0.625 R0.05
G1 X-1.1843
X-1.1938 Y0.6245
X-1.2041 Y0.6232
X-1.2156 Y0.6207
X-1.2288 Y0.6168
X-1.2424 Y0.6115
X-1.2582 Y0.6038
X-1.2742 Y0.5944
X-1.2915 Y0.5822
X-1.3099 Y0.567
X-1.3291 Y0.5482
X-1.3489 Y0.5255
X-1.3699 Y0.4972
X-1.3913 Y0.4628
X-1.4131 Y0.4205
X-1.4329 Y0.3732
X-1.4492 Y0.3246
X-1.4628 Y0.2751
X-1.4739 Y0.2251
X-1.4831 Y0.1746
X-1.4907 Y0.1239
X-1.4969 Y0.073
X-1.502 Y0.022
X-1.5062 Y-0.0291
X-1.5097 Y-0.0802
X-1.5125 Y-0.1314
X-1.5148 Y-0.1826
X-1.5167 Y-0.2339
X-1.518 Y-0.2851
X-1.5184 Y-0.3364
X-1.5171 Y-0.3877
X-1.5132 Y-0.4388
X-1.5067 Y-0.4801
X-1.4983 Y-0.5151
X-1.488 Y-0.5465
X-1.4851 Y-0.5534
X-1.4773 Y-0.5687
X-1.4674 Y-0.5826
X-1.4556 Y-0.595
X-1.4421 Y-0.6055
X-1.4272 Y-0.6139
X-1.4112 Y-0.62
X-1.3945 Y-0.6237
X-1.3775 Y-0.625
X-1.2101
G3 X-1.1619 Y-0.5762 R0.05
G1 X-1.136 Y0.5739
G3 X-1.1843 Y0.625 R0.05
G1 X-1.3108
X-1.3242 Y0.6243
X-1.3378 Y0.6226
X-1.3533 Y0.6192
X-1.3699 Y0.6143
X-1.3878 Y0.6073
X-1.4074 Y0.5978
X-1.4275 Y0.586
X-1.4495 Y0.5705
X-1.4718 Y0.552
X-1.4953 Y0.5291
X-1.5199 Y0.5008
X-1.5446 Y0.4674
X-1.5701 Y0.4265
X-1.5936 Y0.381
X-1.6137 Y0.3338
X-1.6309 Y0.2855
X-1.6456 Y0.2364
X-1.6581 Y0.1867
X-1.6687 Y0.1365
X-1.6777 Y0.086
X-1.6853 Y0.0353
X-1.6918 Y-0.0155
X-1.6972 Y-0.0665
X-1.7016 Y-0.1176
X-1.705 Y-0.1688
X-1.7074 Y-0.22
X-1.7083 Y-0.2712
X-1.7074 Y-0.3225
X-1.7042 Y-0.3737
X-1.6984 Y-0.4246
X-1.6898 Y-0.4722
X-1.6795 Y-0.5111
X-1.6675 Y-0.545
X-1.6626 Y-0.5559
X-1.6547 Y-0.5707
X-1.6447 Y-0.5842
X-1.6329 Y-0.5961
X-1.6196 Y-0.6062
X-1.6049 Y-0.6143
X-1.5892 Y-0.6202
X-1.5728 Y-0.6238
X-1.5561 Y-0.625
X-1.3775
G3 X-1.3293 Y-0.5779 R0.05
G1 X-1.2626 Y0.5721
G3 X-1.2756 Y0.6087 R0.05
X-1.3108 Y0.625 R0.05
G1 X-1.4605
X-1.4772 Y0.6242
X-1.4929 Y0.6221
X-1.5101 Y0.6184
X-1.5285 Y0.6129
X-1.5491 Y0.6049
X-1.57 Y0.5947
X-1.5935 Y0.5809
X-1.6171 Y0.5644
X-1.6424 Y0.5433
X-1.6691 Y0.5173
X-1.6958 Y0.4866
X-1.7237 Y0.4489
X-1.7508 Y0.4054
X-1.7745 Y0.3599
X-1.7952 Y0.313
X-1.8133 Y0.265
X-1.829 Y0.2162
X-1.8426 Y0.1668
X-1.8544 Y0.1169
X-1.8645 Y0.0666
X-1.8732 Y0.0161
X-1.8804 Y-0.0346
X-1.8863 Y-0.0856
X-1.8908 Y-0.1367
X-1.8937 Y-0.1878
X-1.8948 Y-0.2391
X-1.8942 Y-0.2904
X-1.8914 Y-0.3416
X-1.8863 Y-0.3926
X-1.8783 Y-0.4432
X-1.8679 Y-0.4888
X-1.8562 Y-0.5262
X-1.8431 Y-0.5586
X-1.842 Y-0.5607
X-1.8325 Y-0.5764
X-1.8206 Y-0.5905
X-1.8067 Y-0.6025
X-1.791 Y-0.6121
X-1.774 Y-0.6192
X-1.7561 Y-0.6235
X-1.7378 Y-0.625
X-1.5561
G3 X-1.508 Y-0.5792 R0.05
G1 X-1.4124 Y0.5709
G3 X-1.4248 Y0.6082 R0.05
X-1.4605 Y0.625 R0.05
G1 X-1.6252
X-1.6424 Y0.6241
X-1.6584 Y0.622
X-1.6772 Y0.618
X-1.6965 Y0.6122
X-1.7182 Y0.6038
X-1.741 Y0.5927
X-1.7656 Y0.5783
X-1.791 Y0.5604
X-1.8185 Y0.5375
X-1.8465 Y0.5102
X-1.8756 Y0.4768
X-1.9059 Y0.436
X-1.933 Y0.3924
X-1.957 Y0.3471
X-1.9782 Y0.3004
X-1.9969 Y0.2527
X-2.0133 Y0.2041
X-2.0277 Y0.1549
X-2.0402 Y0.1052
X-2.051 Y0.0551
X-2.06 Y0.0046
X-2.0674 Y-0.0461
X-2.0731 Y-0.0971
X-2.0771 Y-0.1482
X-2.0793 Y-0.1994
X-2.0797 Y-0.2507
X-2.0782 Y-0.302
X-2.0745 Y-0.3531
X-2.0683 Y-0.404
X-2.0592 Y-0.4545
X-2.0481 Y-0.4983
X-2.0355 Y-0.5352
X-2.0252 Y-0.559
X-2.0166 Y-0.575
X-2.0055 Y-0.5894
X-1.9921 Y-0.6017
X-1.9769 Y-0.6117
X-1.9603 Y-0.619
X-1.9427 Y-0.6235
X-1.9246 Y-0.625
X-1.7378
G3 X-1.6897 Y-0.5799 R0.05
G1 X-1.5771 Y0.5702
G3 X-1.5893 Y0.608 R0.05
X-1.6252 Y0.625 R0.05
G1 X-1.7898
X-1.8144 Y0.6238
X-1.8313 Y0.6216
X-1.8501 Y0.6175
X-1.8712 Y0.6112
X-1.8929 Y0.6028
X-1.9173 Y0.5909
X-1.9423 Y0.5762
X-1.9693 Y0.5573
X-1.9981 Y0.5333
X-2.0273 Y0.5048
X-2.0581 Y0.4695
X-2.0886 Y0.4283
X-2.1159 Y0.3849
X-2.1402 Y0.3397
X-2.1618 Y0.2932
X-2.1809 Y0.2457
X-2.1978 Y0.1972
X-2.2126 Y0.1482
X-2.2254 Y0.0985
X-2.2363 Y0.0484
X-2.2454 Y-0.002
X-2.2527 Y-0.0528
X-2.2582 Y-0.1038
X-2.2619 Y-0.1549
X-2.2638 Y-0.2062
Y-0.2574
X-2.2618 Y-0.3087
X-2.2575 Y-0.3598
X-2.2507 Y-0.4106
X-2.241 Y-0.4609
X-2.2294 Y-0.5046
X-2.221 Y-0.5285
X-2.2134 Y-0.5456
X-2.2032 Y-0.5612
X-2.1906 Y-0.575
X-2.176 Y-0.5866
X-2.1598 Y-0.5957
X-2.1423 Y-0.6021
X-2.1192 Y-0.6086
X-2.1042 Y-0.6121
X-2.0743 Y-0.6186
X-2.0593 Y-0.6201
X-2.0294 Y-0.6223
X-1.9994 Y-0.6243
X-1.9845 Y-0.625
X-1.9246
G3 X-1.8767 Y-0.5808 R0.05
G1 X-1.7419 Y0.5692
G3 X-1.7537 Y0.6076 R0.05
X-1.7898 Y0.625 R0.05
G1 X-1.9695
X-1.9903 Y0.624
X-2.0083 Y0.6216
X-2.0271 Y0.6176
X-2.0491 Y0.611
X-2.0712 Y0.6024
X-2.0964 Y0.5901
X-2.122 Y0.5751
X-2.15 Y0.5554
X-2.1796 Y0.5308
X-2.2099 Y0.5013
X-2.2416 Y0.4649
X-2.2721 Y0.4237
X-2.2995 Y0.3803
X-2.324 Y0.3352
X-2.3458 Y0.2888
X-2.3651 Y0.2413
X-2.3822 Y0.193
X-2.3971 Y0.1439
X-2.41 Y0.0943
X-2.4209 Y0.0442
X-2.4299 Y-0.0062
X-2.4371 Y-0.057
X-2.4425 Y-0.108
X-2.446 Y-0.1591
X-2.4477 Y-0.2104
X-2.4475 Y-0.2617
X-2.4452 Y-0.3129
X-2.4435 Y-0.3313
X-2.4408 Y-0.3481
X-2.4356 Y-0.3644
X-2.4281 Y-0.3797
X-2.4184 Y-0.3961
X-2.4081 Y-0.411
X-2.4036 Y-0.4169
X-2.3733 Y-0.4559
X-2.3586 Y-0.4708
X-2.3437 Y-0.4857
X-2.3288 Y-0.5004
X-2.3285 Y-0.5007
X-2.309 Y-0.5156
X-2.2893 Y-0.5306
X-2.2839 Y-0.5347
X-2.2689 Y-0.5452
X-2.2539 Y-0.5537
X-2.2418 Y-0.5605
X-2.209 Y-0.5774
X-2.1941 Y-0.5842
X-2.1641 Y-0.5954
X-2.1491 Y-0.6002
X-2.1423 Y-0.6021
G3 X-2.1024 Y-0.5949 R0.05
X-2.081 Y-0.5605 R0.05
G1 X-1.9217 Y0.568
G3 X-1.9329 Y0.6072 R0.05
X-1.9695 Y0.625 R0.05
G1 X-1.9845
X-1.9994 Y0.6243
X-2.0294 Y0.6223
X-2.0593 Y0.6201
X-2.0743 Y0.6186
X-2.1042 Y0.6121
X-2.1192 Y0.6086
X-2.1491 Y0.6002
X-2.1641 Y0.5954
X-2.1941 Y0.5842
X-2.209 Y0.5774
X-2.2418 Y0.5605
X-2.2539 Y0.5537
X-2.2689 Y0.5452
X-2.2839 Y0.5347
X-2.2893 Y0.5306
X-2.3138 Y0.5119
X-2.3285 Y0.5007
X-2.3288 Y0.5004
X-2.3438 Y0.4856
X-2.3587 Y0.4707
X-2.3733 Y0.4559
X-2.4036 Y0.4169
X-2.4081 Y0.411
X-2.4184 Y0.3961
X-2.4272 Y0.3811
X-2.4336 Y0.3702
X-2.4516 Y0.3363
X-2.4584 Y0.3213
X-2.4695 Y0.2914
X-2.4744 Y0.2765
X-2.4831 Y0.2466
X-2.4865 Y0.2317
X-2.493 Y0.2018
X-2.4935 Y0.1987
X-2.4958 Y0.1719
X-2.4971 Y0.1569
X-2.4992 Y0.127
X-2.4999 Y0.1121
X-2.5 Y0.0673
Y-0.0822
X-2.4999 Y-0.1121
X-2.4992 Y-0.127
X-2.4971 Y-0.1569
X-2.4945 Y-0.1868
X-2.4935 Y-0.1987
X-2.493 Y-0.2018
X-2.4865 Y-0.2317
X-2.4831 Y-0.2466
X-2.4744 Y-0.2765
X-2.4695 Y-0.2914
X-2.4584 Y-0.3213
X-2.4516 Y-0.3363
X-2.4336 Y-0.3702
X-2.4281 Y-0.3797
G3 X-2.4048 Y-0.3993 R0.05
G1 X-2.3996 Y-0.4014 Z-0.4997
X-2.3945 Y-0.4035 Z-0.4987
X-2.3895 Y-0.4055 Z-0.4972
X-2.3847 Y-0.4075 Z-0.495
X-2.3802 Y-0.4093 Z-0.4923
X-2.3759 Y-0.4111 Z-0.4891
X-2.3721 Y-0.4127 Z-0.4854
X-2.3686 Y-0.4141 Z-0.4812
X-2.3656 Y-0.4153 Z-0.4766
X-2.3631 Y-0.4163 Z-0.4717
X-2.3611 Y-0.4172 Z-0.4665
X-2.3597 Y-0.4177 Z-0.4611
X-2.3588 Y-0.4181 Z-0.4556
X-2.3585 Y-0.4182 Z-0.45
G0 Z0.6
X3.7757 Y-1.4141
Z0.2
Z-0.6213
G1 Z-0.6713 F126.1
Z-0.75
G3 X3.5035 Y-1.375 R1.2765
G1 X3.4975
X3.4473 Y-1.3853
X3.3967 Y-1.3934
X3.3458 Y-1.4
X3.2948 Y-1.4051
X3.2437 Y-1.4093
X3.1925 Y-1.4125
X3.1413 Y-1.4151
X3.0901 Y-1.4172
X3.0389 Y-1.4188
X2.9876 Y-1.4201
X2.9363 Y-1.4211
X2.8851 Y-1.4219
X2.8338 Y-1.4226
X2.7825 Y-1.4231
X2.7313 Y-1.4235
X2.68 Y-1.4238
X2.6287 Y-1.4241
X2.5775 Y-1.4243
X2.4749 Y-1.4245
X2.3211 Y-1.4248
X2.116 Y-1.4249
X1.6546 Y-1.425
X1.5007
X-0.4989
X-2.4985
X-3.0112
X-3.0239 Y-1.4237
X-3.0365 Y-1.4211
X-3.0852 Y-1.405
X-3.126 Y-1.374
X-3.1598 Y-1.3355
X-3.1875 Y-1.2923
X-3.21 Y-1.2462
X-3.2282 Y-1.1983
X-3.2428 Y-1.1491
X-3.2545 Y-1.0992
X-3.2638 Y-1.0488
X-3.2713 Y-0.9981
X-3.2772 Y-0.9472
X-3.2819 Y-0.8961
X-3.2857 Y-0.845
X-3.2887 Y-0.7938
X-3.291 Y-0.7426
X-3.2929 Y-0.6913
X-3.2944 Y-0.6401
X-3.2956 Y-0.5888
X-3.2965 Y-0.5375
X-3.2972 Y-0.4863
X-3.2978 Y-0.435
X-3.2983 Y-0.3837
X-3.2986 Y-0.3325
X-3.2989 Y-0.2812
X-3.2991 Y-0.2299
X-3.2995 Y-0.1274
X-3.2996 Y-0.0761
X-3.2998 Y0.0777
X-3.2999 Y0.2828
X-3.3 Y0.7442
Y1.1544
X-3.2854 Y1.2036
X-3.2559 Y1.2455
X-3.2182 Y1.2803
X-3.1756 Y1.3088
X-3.1299 Y1.332
X-3.0822 Y1.3507
X-3.0332 Y1.3658
X-2.9833 Y1.3779
X-2.933 Y1.3876
X-2.8823 Y1.3953
X-2.8314 Y1.4014
X-2.7804 Y1.4063
X-2.7292 Y1.4102
X-2.678 Y1.4133
X-2.6268 Y1.4157
X-2.5756 Y1.4177
X-2.5243 Y1.4192
X-2.4731 Y1.4204
X-2.4218 Y1.4214
X-2.3706 Y1.4221
X-2.3193 Y1.4227
X-2.268 Y1.4232
X-2.2168 Y1.4236
X-2.1655 Y1.4239
X-2.1142 Y1.4241
X-2.0117 Y1.4244
X-1.9091 Y1.4247
X-1.7553 Y1.4248
X-1.4989 Y1.4249
X-0.7299 Y1.425
X-0.6273
X1.3723
X3.013
X3.0257 Y1.4234
X3.0507 Y1.4175
X3.0969 Y1.3954
X3.1358 Y1.362
X3.1678 Y1.322
X3.194 Y1.2779
X3.2153 Y1.2312
X3.2324 Y1.1829
X3.2462 Y1.1335
X3.2572 Y1.0834
X3.266 Y1.0329
X3.273 Y0.9821
X3.2786 Y0.9312
X3.283 Y0.8801
X3.2866 Y0.8289
X3.2894 Y0.7777
X3.2916 Y0.7265
X3.2933 Y0.6753
X3.2947 Y0.624
X3.2958 Y0.5728
X3.2967 Y0.5215
X3.2974 Y0.4702
X3.2979 Y0.419
X3.2984 Y0.3677
X3.2987 Y0.3164
X3.299 Y0.2651
X3.2992 Y0.2139
X3.2995 Y0.1113
X3.2997 Y0.0088
X3.2998 Y-0.145
X3.3 Y-0.4527
Y-0.8116
Y-0.9141
X3.2998 Y-0.9269
X3.2982 Y-0.9396
X3.2862 Y-0.9895
X3.2579 Y-1.0323
X3.2214 Y-1.0682
X3.1797 Y-1.098
X3.1346 Y-1.1225
X3.0874 Y-1.1425
X3.0388 Y-1.1587
X2.9892 Y-1.1718
X2.939 Y-1.1824
X2.8885 Y-1.1909
X2.8376 Y-1.1977
X2.7867 Y-1.2032
X2.7356 Y-1.2076
X2.6844 Y-1.2111
X2.6374 Y-1.2137
X2.6194 Y-1.2161
X2.602 Y-1.2213
X2.5856 Y-1.2291
X2.5839 Y-1.23
X2.5752 Y-1.2347
X2.554 Y-1.2444
X2.4791 Y-1.2782
X2.4491 Y-1.2911
X2.4408 Y-1.2946
X2.4042 Y-1.3064
X2.3293 Y-1.3298
X2.2951 Y-1.3395
X2.2843 Y-1.3417
X2.2544 Y-1.3473
X2.1795 Y-1.3611
X2.1495 Y-1.3657
X2.1345 Y-1.3672
X2.1 Y-1.3694
X2.0447 Y-1.3728
X2.0297 Y-1.3736
X1.9997 Y-1.3748
X1.9847 Y-1.375
X0.5318
X0.5168 Y-1.3749
X0.5018 Y-1.3748
X0.4868 Y-1.3745
X0.4569 Y-1.371
X0.4494 Y-1.3694
X0.4269 Y-1.3637
X0.4119 Y-1.3584
X0.3969 Y-1.3524
X0.382 Y-1.3446
X0.3732 Y-1.3395
X0.3292 Y-1.3165
X0.289 Y-1.2995
X0.2403 Y-1.2834
X0.1906 Y-1.2708
X0.1403 Y-1.2611
X0.0896 Y-1.2534
X0.0387 Y-1.2474
X-0.0124 Y-1.2426
X-0.0635 Y-1.2389
X-0.1147 Y-1.236
X-0.1659 Y-1.2337
X-0.2059 Y-1.2323
X-0.2246 Y-1.2331
X-0.2428 Y-1.2369
X-0.2602 Y-1.2435
X-0.2763 Y-1.2528
X-0.2908 Y-1.2646
X-0.3032 Y-1.2785
X-0.3071 Y-1.2837
X-0.3168 Y-1.2946
X-0.3221 Y-1.3002
X-0.3318 Y-1.3095
X-0.337 Y-1.3143
X-0.3497 Y-1.3245
X-0.352 Y-1.3262
X-0.367 Y-1.3358
X-0.382 Y-1.3446
X-0.3969 Y-1.3524
X-0.4119 Y-1.3584
X-0.4269 Y-1.3637
X-0.4494 Y-1.3694
X-0.4569 Y-1.371
X-0.4868 Y-1.3745
X-0.5018 Y-1.3748
X-0.5168 Y-1.3749
X-0.5318 Y-1.375
X-1.9847
X-1.9997 Y-1.3748
X-2.0297 Y-1.3736
X-2.0746 Y-1.3709
X-2.1046 Y-1.3691
X-2.1345 Y-1.3672
X-2.1495 Y-1.3657
X-2.1795 Y-1.3611
X-2.2544 Y-1.3473
X-2.2843 Y-1.3417
X-2.2951 Y-1.3395
X-2.3293 Y-1.3298
X-2.4042 Y-1.3064
X-2.4341 Y-1.2967
X-2.4836 Y-1.2834
X-2.5333 Y-1.2709
X-2.5837 Y-1.2611
X-2.6344 Y-1.2534
X-2.6853 Y-1.2474
X-2.7363 Y-1.2427
X-2.7872 Y-1.2361
X-2.8349 Y-1.2173
X-2.8776 Y-1.1889
X-2.9147 Y-1.1536
X-2.9465 Y-1.1134
X-2.9734 Y-1.0697
X-2.996 Y-1.0237
X-3.0148 Y-0.976
X-3.0303 Y-0.9271
X-3.0432 Y-0.8775
X-3.0537 Y-0.8273
X-3.0578 Y-0.8036
X-3.0611 Y-0.7894
X-3.0662 Y-0.7758
X-3.0729 Y-0.7629
X-3.0862 Y-0.7408
X-3.0952 Y-0.7259
X-3.104 Y-0.7109
X-3.1118 Y-0.6959
X-3.1253 Y-0.666
X-3.1531 Y-0.6041
X-3.1587 Y-0.5912
X-3.1681 Y-0.5692
X-3.1712 Y-0.5612
X-3.1807 Y-0.5313
X-3.1854 Y-0.5163
X-3.2041 Y-0.4565
X-3.2084 Y-0.4415
X-3.213 Y-0.4247
X-3.2163 Y-0.4116
X-3.2219 Y-0.3816
X-3.2356 Y-0.3068
X-3.238 Y-0.2918
X-3.2402 Y-0.2769
X-3.2421 Y-0.2619
X-3.244 Y-0.232
X-3.2485 Y-0.1571
X-3.2491 Y-0.1422
X-3.2496 Y-0.1272
X-3.25 Y-0.1122
Y0.1122
X-3.2496 Y0.1272
X-3.2491 Y0.1422
X-3.2485 Y0.1571
X-3.244 Y0.232
X-3.2421 Y0.2619
X-3.2402 Y0.2769
X-3.238 Y0.2918
X-3.2356 Y0.3068
X-3.2219 Y0.3816
X-3.2163 Y0.4116
X-3.213 Y0.4247
X-3.2084 Y0.4415
X-3.2041 Y0.4565
X-3.1831 Y0.5239
X-3.1807 Y0.5313
X-3.1712 Y0.5612
X-3.1555 Y0.6101
X-3.1436 Y0.6599
X-3.1343 Y0.7104
X-3.127 Y0.7611
X-3.1213 Y0.8121
X-3.1168 Y0.8631
X-3.1102 Y0.914
X-3.0911 Y0.9616
X-3.0625 Y1.0041
X-3.027 Y1.0411
X-2.9867 Y1.0728
X-2.9429 Y1.0995
X-2.8968 Y1.1219
X-2.849 Y1.1405
X-2.8001 Y1.1559
X-2.7505 Y1.1687
X-2.7003 Y1.1791
X-2.6786 Y1.1828
X-2.6644 Y1.1861
X-2.6507 Y1.1912
X-2.6378 Y1.198
X-2.5989 Y1.2214
X-2.5839 Y1.23
X-2.5752 Y1.2347
X-2.554 Y1.2444
X-2.4791 Y1.2782
X-2.4491 Y1.2911
X-2.4408 Y1.2946
X-2.4042 Y1.3064
X-2.3293 Y1.3298
X-2.2951 Y1.3395
X-2.2843 Y1.3417
X-2.2544 Y1.3473
X-2.1795 Y1.3611
X-2.1495 Y1.3657
X-2.1345 Y1.3672
X-2.1 Y1.3694
X-2.0447 Y1.3728
X-2.0297 Y1.3736
X-1.9997 Y1.3748
X-1.9847 Y1.375
X1.9847
X1.9997 Y1.3748
X2.0297 Y1.3736
X2.0746 Y1.3709
X2.1046 Y1.3691
X2.1345 Y1.3672
X2.1495 Y1.3657
X2.1795 Y1.3611
X2.2544 Y1.3473
X2.2843 Y1.3417
X2.2951 Y1.3395
X2.3293 Y1.3298
X2.4042 Y1.3064
X2.4341 Y1.2967
X2.4836 Y1.2834
X2.5333 Y1.2709
X2.5837 Y1.2611
X2.6344 Y1.2534
X2.6853 Y1.2474
X2.7363 Y1.2427
X2.7872 Y1.2359
X2.8348 Y1.217
X2.8775 Y1.1885
X2.9146 Y1.1532
X2.9464 Y1.113
X2.9733 Y1.0693
X2.9958 Y1.0233
X3.0146 Y0.9755
X3.0302 Y0.9267
X3.043 Y0.8771
X3.0536 Y0.8269
X3.0575 Y0.8039
X3.0609 Y0.7898
X3.0659 Y0.7762
X3.0727 Y0.7633
X3.0862 Y0.7408
X3.0952 Y0.7259
X3.104 Y0.7109
X3.1118 Y0.6959
X3.1253 Y0.666
X3.1531 Y0.6041
X3.1587 Y0.5912
X3.1681 Y0.5692
X3.1712 Y0.5612
X3.1807 Y0.5313
X3.1854 Y0.5163
X3.2041 Y0.4565
X3.2084 Y0.4415
X3.213 Y0.4247
X3.2163 Y0.4116
X3.2219 Y0.3816
X3.2356 Y0.3068
X3.238 Y0.2918
X3.2402 Y0.2769
X3.2421 Y0.2619
X3.244 Y0.232
X3.2485 Y0.1571
X3.2491 Y0.1422
X3.2496 Y0.1272
X3.25 Y0.1122
Y-0.1122
X3.2496 Y-0.1272
X3.2491 Y-0.1422
X3.2485 Y-0.1571
X3.244 Y-0.232
X3.2421 Y-0.2619
X3.2402 Y-0.2769
X3.238 Y-0.2918
X3.2356 Y-0.3068
X3.2219 Y-0.3816
X3.2163 Y-0.4116
X3.213 Y-0.4247
X3.2084 Y-0.4415
X3.2041 Y-0.4565
X3.1831 Y-0.5239
X3.1807 Y-0.5313
X3.1712 Y-0.5612
X3.1555 Y-0.6101
X3.1436 Y-0.6599
X3.1326 Y-0.71
X3.1115 Y-0.7567
X3.0821 Y-0.7987
X3.0463 Y-0.8355
X3.0123 Y-0.8622
X3.0052 Y-0.8683
X2.9986 Y-0.8749
X2.9925 Y-0.8821
G3 X2.9829 Y-0.9109 R0.05
G1 Y-0.9165 Z-0.7497
X2.9828 Y-0.9221 Z-0.7487
X2.9827 Y-0.9274 Z-0.7472
Y-0.9326 Z-0.745
X2.9826 Y-0.9375 Z-0.7423
Y-0.9421 Z-0.7391
X2.9825 Y-0.9463 Z-0.7354
Y-0.95 Z-0.7312
Y-0.9533 Z-0.7266
X2.9824 Y-0.956 Z-0.7217
Y-0.9581 Z-0.7165
Y-0.9597 Z-0.7111
Y-0.9606 Z-0.7056
Y-0.9609 Z-0.7
G0 Z0.2
X3.2293 Y-0.5058
Z-0.65
G1 Z-0.7 F126.1
X3.229 Y-0.506 Z-0.7056
X3.2283 Y-0.5066 Z-0.7111
X3.2271 Y-0.5075 Z-0.7165
X3.2254 Y-0.5089 Z-0.7217
X3.2233 Y-0.5105 Z-0.7266
X3.2207 Y-0.5125 Z-0.7312
X3.2178 Y-0.5149 Z-0.7354
X3.2145 Y-0.5174 Z-0.7391
X3.2109 Y-0.5203 Z-0.7423
X3.207 Y-0.5233 Z-0.745
X3.203 Y-0.5265 Z-0.7472
X3.1987 Y-0.5298 Z-0.7487
X3.1944 Y-0.5332 Z-0.7497
X3.19 Y-0.5367 Z-0.75
G3 X3.1712 Y-0.5612 R0.0623
G1 X3.1681 Y-0.5692
X3.1587 Y-0.5912
X3.1531 Y-0.6041
X3.1185 Y-0.681
X3.1118 Y-0.6959
X3.104 Y-0.7109
X3.0932 Y-0.7292
X3.0772 Y-0.7558
X3.041 Y-0.8157
X3.0333 Y-0.8278
X3.0093 Y-0.8606
X3.0033 Y-0.8682
X2.9507 Y-0.9354
X2.9434 Y-0.9441
X2.9284 Y-0.9614
X2.9248 Y-0.9653
X2.85 Y-1.0402
X2.8386 Y-1.0513
X2.8173 Y-1.0701
X2.8086 Y-1.0771
X2.7412 Y-1.1299
X2.7337 Y-1.1356
X2.7037 Y-1.1578
X2.7007 Y-1.1599
X2.6265 Y-1.2048
X2.5989 Y-1.2214
X2.5856 Y-1.2291
X2.5839 Y-1.23
X2.5752 Y-1.2347
X2.5689 Y-1.2376
X2.5578 Y-1.2427
X2.554 Y-1.2444
X2.4791 Y-1.2782
X2.4757 Y-1.2796
X2.4491 Y-1.2911
X2.4408 Y-1.2946
X2.4042 Y-1.3064
X2.3293 Y-1.3298
X2.2951 Y-1.3395
X2.2843 Y-1.3417
X2.2544 Y-1.3473
X2.1795 Y-1.3611
X2.1495 Y-1.3657
X2.1345 Y-1.3672
X2.1046 Y-1.3691
X2.0447 Y-1.3728
X2.0297 Y-1.3736
X1.9997 Y-1.3748
X1.9847 Y-1.375
X0.5318
X0.5168 Y-1.3749
X0.5018 Y-1.3748
X0.4868 Y-1.3745
X0.4569 Y-1.371
X0.4494 Y-1.3694
X0.4269 Y-1.3637
X0.4119 Y-1.3584
X0.4005 Y-1.3538
X0.3969 Y-1.3524
X0.382 Y-1.3446
X0.3732 Y-1.3395
X0.367 Y-1.3358
X0.352 Y-1.3262
X0.3497 Y-1.3245
X0.337 Y-1.3143
X0.3318 Y-1.3095
X0.3221 Y-1.3002
X0.3168 Y-1.2946
X0.3071 Y-1.2837
X0.2927 Y-1.2646
X0.2921 Y-1.2637
X0.2838 Y-1.2497
X0.28 Y-1.2432
X0.2709 Y-1.2303
X0.2587 Y-1.2156
X0.2437 Y-1.2003
X0.2244 Y-1.1836
X0.2006 Y-1.166
X0.1708 Y-1.1475
X0.1331 Y-1.1282
X0.0858 Y-1.1085
X0.037 Y-1.0926
X-0.0126 Y-1.0797
X-0.061 Y-1.0703
X-0.1011 Y-1.0658
X-0.1374 Y-1.0646
X-0.1706 Y-1.0662
X-0.186 Y-1.0696
X-0.2007 Y-1.0755
X-0.2142 Y-1.0838
X-0.2261 Y-1.0942
X-0.2361 Y-1.1065
X-0.2438 Y-1.1203
X-0.2492 Y-1.1353
X-0.2519 Y-1.1508
G3 X-0.2148 Y-1.2019 R0.05
G1 X0.2256 Y-1.319
G3 X0.2868 Y-1.2836 R0.05
X0.2838 Y-1.2497 R0.05
G1 X0.2762 Y-1.2347
X0.2688 Y-1.2197
X0.2621 Y-1.2012
X0.2586 Y-1.1898
X0.2527 Y-1.1599
X0.2526 Y-1.1585
X0.2518 Y-1.1526
X0.2489 Y-1.141
X0.2444 Y-1.1277
X0.2379 Y-1.1125
X0.2299 Y-1.0972
X0.2188 Y-1.0797
X0.2055 Y-1.062
X0.1881 Y-1.0424
X0.1679 Y-1.023
X0.1428 Y-1.0025
X0.115 Y-0.9833
X0.0841 Y-0.9655
X0.05 Y-0.9493
X0.0135 Y-0.9354
X-0.0191 Y-0.9259
X-0.0489 Y-0.9198
X-0.0778 Y-0.9162
X-0.1044 Y-0.9151
X-0.1295 Y-0.9161
X-0.1539 Y-0.919
X-0.1761 Y-0.9235
X-0.1915 Y-0.9293
X-0.2058 Y-0.9375
X-0.2185 Y-0.9479
X-0.2295 Y-0.9602
X-0.2383 Y-0.9741
X-0.2447 Y-0.9892
X-0.2487 Y-1.0052
X-0.25 Y-1.0216
Y-1.115
X-0.2504 Y-1.1299
X-0.2514 Y-1.1449
X-0.2519 Y-1.1508
G3 X-0.2386 Y-1.1876 R0.05
X-0.2029 Y-1.2036 R0.05
G1 X0.2017 Y-1.2112
G3 X0.2387 Y-1.196 R0.05
X0.2526 Y-1.1585 R0.05
G1 X0.2514 Y-1.1449
X0.2504 Y-1.1299
X0.25 Y-1.115
Y-1.0469
X0.2493 Y-1.0339
X0.2475 Y-1.0199
X0.2444 Y-1.0054
X0.2395 Y-0.9889
X0.233 Y-0.9722
X0.2239 Y-0.9536
X0.213 Y-0.935
X0.199 Y-0.9151
X0.1824 Y-0.8951
X0.1635 Y-0.8758
X0.1417 Y-0.8567
X0.1171 Y-0.8385
X0.0904 Y-0.8219
X0.0619 Y-0.8072
X0.0318 Y-0.7946
X0.0003 Y-0.7843
X-0.0304 Y-0.7769
X-0.0598 Y-0.7723
X-0.0868 Y-0.7703
X-0.1129 Y-0.7705
X-0.138 Y-0.7726
X-0.161 Y-0.7765
X-0.184 Y-0.7823
X-0.1982 Y-0.7884
X-0.2112 Y-0.7966
X-0.2228 Y-0.8069
X-0.2326 Y-0.8187
X-0.2405 Y-0.832
X-0.2461 Y-0.8464
X-0.2494 Y-0.8615
X-0.2503 Y-0.8769
X-0.25 Y-0.8905
Y-0.9204
Y-1.0216
G3 X-0.2032 Y-1.0697 R0.05
G1 X0.1969 Y-1.095
G3 X0.2336 Y-1.0822 R0.05
X0.25 Y-1.0469 R0.05
G1 Y-0.9055
X0.2492 Y-0.8881
X0.2474 Y-0.874
X0.2441 Y-0.8586
X0.2393 Y-0.8424
X0.2324 Y-0.8247
X0.2239 Y-0.8069
X0.2126 Y-0.7877
X0.1994 Y-0.7687
X0.1835 Y-0.7494
X0.1645 Y-0.7299
X0.1433 Y-0.7113
X0.1199 Y-0.6939
X0.0939 Y-0.6777
X0.0659 Y-0.6631
X0.036 Y-0.6505
X0.0048 Y-0.6402
X-0.0274 Y-0.6324
X-0.0571 Y-0.6277
X-0.0854 Y-0.6255
X-0.1123 Y-0.6256
X-0.1371 Y-0.6277
X-0.1613 Y-0.6317
X-0.184 Y-0.6373
X-0.205 Y-0.6444
X-0.2255 Y-0.6532
X-0.2336 Y-0.6575
X-0.246 Y-0.6653
X-0.2569 Y-0.6752
X-0.266 Y-0.6866
X-0.2731 Y-0.6995
X-0.2779 Y-0.7133
X-0.2804 Y-0.7277
X-0.2805 Y-0.7424
X-0.2782 Y-0.7569
X-0.2735 Y-0.7708
G3 X-0.2453 Y-0.7964 R0.05
G1 X0.1831 Y-0.9506
G3 X0.2471 Y-0.9205 R0.05
X0.25 Y-0.9055 R0.05
G1 Y-0.8905
X0.2507 Y-0.8606
X0.2523 Y-0.8456
X0.2544 Y-0.8306
X0.2575 Y-0.8157
X0.2613 Y-0.8007
X0.2628 Y-0.7949
X0.2645 Y-0.7839
X0.2652 Y-0.7719
X0.265 Y-0.7585
X0.2636 Y-0.7438
X0.2608 Y-0.7282
X0.2563 Y-0.711
X0.2502 Y-0.6935
X0.2417 Y-0.6743
X0.2313 Y-0.6553
X0.2184 Y-0.6354
X0.2026 Y-0.6149
X0.1847 Y-0.5953
X0.1637 Y-0.5756
X0.1397 Y-0.5566
X0.1136 Y-0.5391
X0.0854 Y-0.5233
X0.0554 Y-0.5095
X0.0238 Y-0.498
X-0.009 Y-0.4889
X-0.0426 Y-0.4824
X-0.0766 Y-0.4787
X-0.1106 Y-0.4777
X-0.1421 Y-0.4794
X-0.1702 Y-0.4831
X-0.197 Y-0.4889
X-0.2213 Y-0.4962
X-0.2435 Y-0.5049
X-0.2646 Y-0.5152
X-0.2834 Y-0.5263
X-0.3013 Y-0.5389
X-0.3172 Y-0.5521
X-0.3318 Y-0.5664
X-0.336 Y-0.5713
X-0.3451 Y-0.5838
X-0.3518 Y-0.5977
X-0.356 Y-0.6126
X-0.3575 Y-0.628
X-0.3562 Y-0.6434
X-0.3522 Y-0.6584
X-0.3457 Y-0.6724
X-0.3368 Y-0.6851
X-0.3258 Y-0.6959
G3 X-0.3038 Y-0.7077 R0.05
G1 X-0.2982 Y-0.7091
X0.2025 Y-0.832
G3 X0.2613 Y-0.8007 R0.05
G1 X0.2621 Y-0.7983
X0.267 Y-0.7857
X0.2771 Y-0.7624
X0.2806 Y-0.7558
X0.2921 Y-0.7365
X0.2966 Y-0.7287
X0.3006 Y-0.7204
X0.3045 Y-0.7103
X0.3076 Y-0.6994
X0.3103 Y-0.6866
X0.312 Y-0.6729
X0.3127 Y-0.6576
X0.312 Y-0.6409
X0.31 Y-0.6234
X0.3061 Y-0.6039
X0.3005 Y-0.5841
X0.2925 Y-0.5628
X0.2821 Y-0.5407
X0.2696 Y-0.5187
X0.2539 Y-0.4958
X0.2353 Y-0.4728
X0.2143 Y-0.4507
X0.1901 Y-0.429
X0.1625 Y-0.408
X0.1321 Y-0.3885
X0.0994 Y-0.3711
X0.0644 Y-0.3559
X0.0273 Y-0.3433
X-0.011 Y-0.3336
X-0.05 Y-0.327
X-0.0891 Y-0.3235
X-0.1277 Y-0.3232
X-0.1657 Y-0.326
X-0.2026 Y-0.3317
X-0.2382 Y-0.3402
X-0.2722 Y-0.3512
X-0.3026 Y-0.3639
X-0.3304 Y-0.3781
X-0.3543 Y-0.3929
X-0.3752 Y-0.4084
X-0.3943 Y-0.425
X-0.4105 Y-0.4415
X-0.4254 Y-0.4594
X-0.4378 Y-0.477
X-0.4488 Y-0.4956
X-0.4577 Y-0.5138
X-0.4651 Y-0.5328
X-0.4655 Y-0.5343
X-0.4686 Y-0.5486
X-0.4692 Y-0.5633
X-0.4673 Y-0.5779
X-0.4631 Y-0.5919
X-0.4565 Y-0.6051
X-0.4478 Y-0.6169
X-0.4373 Y-0.6272
X-0.4252 Y-0.6355
X-0.4119 Y-0.6417
X-0.4077 Y-0.6431
X-0.4034 Y-0.644
X-0.3817 Y-0.6478
X0.2425 Y-0.7571
G3 X0.2921 Y-0.7365 R0.05
G1 X0.2956 Y-0.7312
X0.2998 Y-0.7259
X0.3258 Y-0.6959
X0.337 Y-0.6866
X0.3429 Y-0.6813
X0.3488 Y-0.675
X0.3547 Y-0.6676
X0.3608 Y-0.6586
X0.3664 Y-0.6487
X0.3718 Y-0.6368
X0.3766 Y-0.6239
X0.3807 Y-0.6092
X0.3838 Y-0.5931
X0.3857 Y-0.5756
X0.3863 Y-0.556
X0.3853 Y-0.5358
X0.3824 Y-0.5136
X0.3774 Y-0.4902
X0.3702 Y-0.4662
X0.3602 Y-0.4403
X0.3474 Y-0.4141
X0.3319 Y-0.3878
X0.3128 Y-0.3605
X0.2901 Y-0.3332
X0.2648 Y-0.3072
X0.2357 Y-0.2818
X0.2237 Y-0.2729
X0.2079 Y-0.2631
X0.1908 Y-0.2559
X0.1728 Y-0.2515
X0.1543 Y-0.25
X-0.2472
X-0.2621 Y-0.2492
X-0.2848 Y-0.2487
X-0.3077 Y-0.2502
X-0.3316 Y-0.2536
X-0.3564 Y-0.2592
X-0.3817 Y-0.2671
X-0.4068 Y-0.2772
X-0.4315 Y-0.2896
X-0.4556 Y-0.3042
X-0.4788 Y-0.3209
X-0.5002 Y-0.3391
X-0.519 Y-0.3578
X-0.5348 Y-0.3764
X-0.549 Y-0.396
X-0.5606 Y-0.4152
X-0.5705 Y-0.4349
X-0.5784 Y-0.4546
X-0.5845 Y-0.4741
X-0.5891 Y-0.4939
X-0.5918 Y-0.513
X-0.593 Y-0.5326
Y-0.5347
X-0.5914 Y-0.5504
X-0.5871 Y-0.5655
X-0.5803 Y-0.5798
X-0.5711 Y-0.5926
X-0.5599 Y-0.6038
X-0.547 Y-0.6128
X-0.5327 Y-0.6195
X-0.5175 Y-0.6237
X-0.5018 Y-0.6252
G3 X-0.4648 Y-0.6077 R0.05
G1 X-0.2292 Y-0.3313
G3 X-0.2349 Y-0.2608 R0.05
X-0.2621 Y-0.2492 R0.05
G1 X-0.2771 Y-0.2481
X-0.2912 Y-0.2469
X-0.3221 Y-0.2435
X-0.352 Y-0.239
X-0.367 Y-0.2355
X-0.382 Y-0.2312
X-0.3969 Y-0.2266
X-0.4049 Y-0.2243
X-0.417 Y-0.2218
X-0.4311 Y-0.22
X-0.446 Y-0.2193
X-0.4625 Y-0.2199
X-0.4802 Y-0.2219
X-0.4983 Y-0.2255
X-0.5176 Y-0.231
X-0.5376 Y-0.2384
X-0.5575 Y-0.2477
X-0.5773 Y-0.2589
X-0.597 Y-0.2724
X-0.6163 Y-0.2879
X-0.6349 Y-0.3054
X-0.6522 Y-0.3247
X-0.6683 Y-0.3458
X-0.6821 Y-0.3672
X-0.6938 Y-0.3892
X-0.703 Y-0.4102
X-0.7106 Y-0.4322
X-0.7159 Y-0.453
X-0.7196 Y-0.4743
X-0.7214 Y-0.4947
X-0.7216 Y-0.5151
X-0.7202 Y-0.5348
X-0.7172 Y-0.5541
X-0.7125 Y-0.5687
X-0.7053 Y-0.5823
X-0.696 Y-0.5946
X-0.6848 Y-0.6051
X-0.672 Y-0.6136
X-0.6579 Y-0.6199
X-0.643 Y-0.6237
X-0.6276 Y-0.625
X-0.5318
X-0.5168 Y-0.6251
X-0.5018 Y-0.6252
G3 X-0.455 Y-0.5892 R0.05
G1 X-0.3671 Y-0.2872
G3 X-0.3969 Y-0.2266 R0.05
G1 X-0.4269 Y-0.2162
X-0.4419 Y-0.2104
X-0.4634 Y-0.202
X-0.4868 Y-0.1897
X-0.4892 Y-0.1883
X-0.4954 Y-0.1849
X-0.5049 Y-0.1808
X-0.5158 Y-0.177
X-0.5277 Y-0.174
X-0.5414 Y-0.1716
X-0.5559 Y-0.1703
X-0.5722 Y-0.1701
X-0.5894 Y-0.1713
X-0.6075 Y-0.1741
X-0.6272 Y-0.1787
X-0.6471 Y-0.1851
X-0.6676 Y-0.1936
X-0.6887 Y-0.2044
X-0.7098 Y-0.2173
X-0.7303 Y-0.2324
X-0.7501 Y-0.2495
X-0.769 Y-0.2688
X-0.7869 Y-0.2901
X-0.8033 Y-0.3131
X-0.818 Y-0.3379
X-0.8308 Y-0.364
X-0.8415 Y-0.3912
X-0.8493 Y-0.4168
X-0.8548 Y-0.4421
X-0.8581 Y-0.4663
X-0.8594 Y-0.4893
X-0.8588 Y-0.5122
X-0.8565 Y-0.5334
X-0.8525 Y-0.5547
X-0.8472 Y-0.5693
X-0.8396 Y-0.5828
X-0.8299 Y-0.595
X-0.8183 Y-0.6054
X-0.8052 Y-0.6138
X-0.7909 Y-0.62
X-0.7758 Y-0.6237
X-0.7603 Y-0.625
X-0.6276
G3 X-0.5819 Y-0.5906 R0.05
G1 X-0.469 Y-0.2457
G3 X-0.4892 Y-0.1883 R0.05
G1 X-0.4912 Y-0.1871
X-0.5151 Y-0.1721
X-0.5318 Y-0.1616
X-0.5388 Y-0.1571
X-0.5467 Y-0.1518
X-0.5617 Y-0.1404
X-0.5663 Y-0.1366
X-0.5713 Y-0.1327
X-0.5798 Y-0.1271
X-0.5891 Y-0.122
X-0.6003 Y-0.117
X-0.6125 Y-0.1127
X-0.6264 Y-0.109
X-0.6417 Y-0.1063
X-0.6581 Y-0.1047
X-0.6764 Y-0.1044
X-0.6954 Y-0.1056
X-0.7157 Y-0.1085
X-0.7375 Y-0.1135
X-0.7595 Y-0.1204
X-0.7823 Y-0.1296
X-0.8061 Y-0.1415
X-0.8297 Y-0.1558
X-0.8528 Y-0.1726
X-0.8758 Y-0.1921
X-0.898 Y-0.2144
X-0.9189 Y-0.239
X-0.9381 Y-0.2656
X-0.9552 Y-0.2939
X-0.9701 Y-0.3237
X-0.9825 Y-0.3547
X-0.9925 Y-0.3866
X-0.9992 Y-0.4161
X-1.0032 Y-0.4447
X-1.0049 Y-0.4715
X-1.0044 Y-0.4964
X-1.002 Y-0.521
X-0.9979 Y-0.5437
X-0.9919 Y-0.5606
X-0.9832 Y-0.5762
X-0.9721 Y-0.5903
X-0.9588 Y-0.6023
X-0.9438 Y-0.612
X-0.9273 Y-0.6192
X-0.91 Y-0.6235
X-0.8921 Y-0.625
X-0.7603
G3 X-0.7157 Y-0.5937 R0.05
G1 X-0.5538 Y-0.192
G3 X-0.5663 Y-0.1366 R0.05
G1 X-0.5767 Y-0.1276
X-0.5917 Y-0.1132
X-0.6226 Y-0.0823
X-0.63 Y-0.0741
X-0.6375 Y-0.0665
X-0.6453 Y-0.0598
X-0.6546 Y-0.0531
X-0.665 Y-0.0467
X-0.6774 Y-0.0405
X-0.6907 Y-0.0351
X-0.7063 Y-0.0302
X-0.723 Y-0.0263
X-0.7413 Y-0.0236
X-0.7617 Y-0.0223
X-0.7828 Y-0.0226
X-0.8058 Y-0.0248
X-0.8303 Y-0.0292
X-0.8552 Y-0.0357
X-0.8816 Y-0.045
X-0.909 Y-0.0571
X-0.9361 Y-0.0718
X-0.9632 Y-0.0895
X-0.9904 Y-0.1105
X-1.0171 Y-0.1348
X-1.0426 Y-0.1621
X-1.0663 Y-0.1919
X-1.0878 Y-0.2239
X-1.1069 Y-0.258
X-1.1143 Y-0.2742
X-1.1202 Y-0.2898
X-1.1238 Y-0.3062
X-1.125 Y-0.3229
Y-0.5014
X-1.1238 Y-0.5247
X-1.1213 Y-0.5443
X-1.1203 Y-0.5488
X-1.1155 Y-0.5644
X-1.1082 Y-0.5791
X-1.0985 Y-0.5922
X-1.0867 Y-0.6036
X-1.0731 Y-0.6127
X-1.0582 Y-0.6195
X-1.0424 Y-0.6236
X-1.0261 Y-0.625
G3 X-0.9779 Y-0.5733 R0.05
X-0.986 Y-0.5476 R0.05
G1 X-1.0332 Y-0.4757
G3 X-1.1025 Y-0.4613 R0.05
X-1.125 Y-0.5014 R0.05
G1 Y-0.5612
Y-0.5762
X-1.1241 Y-0.5837
X-1.1221 Y-0.5912
X-1.1196 Y-0.5972
X-1.116 Y-0.6032
X-1.1137 Y-0.6061
X-1.1108 Y-0.6094
X-1.1073 Y-0.6126
X-1.101 Y-0.6173
X-1.0937 Y-0.6211
X-1.086 Y-0.6236
X-1.0785 Y-0.6248
X-1.071 Y-0.625
X-0.8921
G3 X-0.8488 Y-0.5967 R0.05
G1 X-0.6232 Y-0.1279
G3 X-0.63 Y-0.0741 R0.05
G1 X-0.6366 Y-0.0667
X-0.6478 Y-0.0524
X-0.6516 Y-0.0471
X-0.6674 Y-0.0224
X-0.6768 Y-0.0075
X-0.6794 Y-0.0031
X-0.6845 Y0.0044
X-0.6907 Y0.0121
X-0.6985 Y0.0204
X-0.7075 Y0.0286
X-0.7182 Y0.0368
X-0.7307 Y0.0449
X-0.7444 Y0.0522
X-0.7605 Y0.0593
X-0.7777 Y0.0653
X-0.7973 Y0.0703
X-0.8187 Y0.0741
X-0.8414 Y0.0762
X-0.8666 Y0.0765
X-0.893 Y0.0747
X-0.9206 Y0.0705
X-0.9506 Y0.0635
X-0.9813 Y0.0537
X-1.0123 Y0.041
X-1.0446 Y0.0246
X-1.0694 Y0.0094
X-1.0832 Y-0.0006
X-1.0954 Y-0.0124
X-1.1057 Y-0.0258
X-1.114 Y-0.0407
X-1.1201 Y-0.0565
X-1.1238 Y-0.0731
X-1.125 Y-0.0901
Y-0.3229
G3 X-1.0733 Y-0.3711 R0.05
X-1.043 Y-0.3595 R0.05
G1 X-0.691 Y-0.0659
G3 X-0.6794 Y-0.0031 R0.05
G1 X-0.6949 Y0.0224
X-0.6965 Y0.0257
X-0.7087 Y0.0524
X-0.7115 Y0.0599
X-0.7157 Y0.0719
X-0.7193 Y0.0806
X-0.7235 Y0.089
X-0.7293 Y0.0985
X-0.7361 Y0.1078
X-0.7447 Y0.1178
X-0.7547 Y0.1278
X-0.7664 Y0.1377
X-0.7803 Y0.1476
X-0.7955 Y0.1568
X-0.8135 Y0.1657
X-0.8328 Y0.1734
X-0.8546 Y0.1802
X-0.879 Y0.1856
X-0.9044 Y0.1891
X-0.9328 Y0.1908
X-0.9628 Y0.1902
X-0.9928 Y0.1871
X-1.0202 Y0.182
X-1.0462 Y0.1751
X-1.05 Y0.1737
X-1.0659 Y0.1666
X-1.0804 Y0.1573
X-1.0933 Y0.1457
X-1.1044 Y0.1324
X-1.1132 Y0.1175
X-1.1197 Y0.1015
X-1.1237 Y0.0846
X-1.125 Y0.0673
Y-0.0901
G3 X-1.0733 Y-0.1383 R0.05
X-1.0539 Y-0.1336 R0.05
G1 X-0.7423 Y0.0117
G3 X-0.7157 Y0.0719 R0.05
G1 X-0.7194 Y0.0823
X-0.7245 Y0.0973
X-0.7344 Y0.1272
X-0.7376 Y0.1422
X-0.7406 Y0.1571
X-0.7436 Y0.1692
X-0.7469 Y0.179
X-0.7514 Y0.1893
X-0.7572 Y0.2002
X-0.7646 Y0.2118
X-0.7733 Y0.2233
X-0.7843 Y0.2356
X-0.7967 Y0.2474
X-0.8116 Y0.2595
X-0.8283 Y0.2709
X-0.8472 Y0.2817
X-0.8685 Y0.2918
X-0.8915 Y0.3004
X-0.9155 Y0.3073
X-0.9395 Y0.3121
X-0.9625 Y0.3148
X-0.9861 Y0.3157
X-1.0081 Y0.3148
X-1.0304 Y0.3121
X-1.0515 Y0.3077
X-1.0668 Y0.3019
X-1.081 Y0.2937
X-1.0937 Y0.2833
X-1.1046 Y0.271
X-1.1133 Y0.2571
X-1.1198 Y0.242
X-1.1237 Y0.2261
X-1.125 Y0.2097
Y0.0673
G3 X-1.0733 Y0.0191 R0.05
X-1.0615 Y0.021 R0.05
G1 X-0.7764 Y0.1009
G3 X-0.7406 Y0.1571 R0.05
G1 X-0.7415 Y0.1617
X-0.7428 Y0.1721
X-0.7445 Y0.1871
X-0.7461 Y0.202
X-0.7492 Y0.232
X-0.7497 Y0.2469
X-0.7502 Y0.2559
X-0.7517 Y0.2657
X-0.7542 Y0.2768
X-0.7578 Y0.2885
X-0.7628 Y0.3008
X-0.7695 Y0.3141
X-0.7775 Y0.3274
X-0.7876 Y0.3413
X-0.7993 Y0.3551
X-0.8127 Y0.3685
X-0.8284 Y0.3818
X-0.8459 Y0.3944
X-0.8649 Y0.4059
X-0.8857 Y0.4162
X-0.9081 Y0.4253
X-0.9297 Y0.432
X-0.9515 Y0.437
X-0.9731 Y0.44
X-0.994 Y0.4413
X-1.0151 Y0.4409
X-1.035 Y0.439
X-1.0552 Y0.4353
X-1.0697 Y0.4301
X-1.0831 Y0.4227
X-1.0952 Y0.4132
X-1.1055 Y0.4018
X-1.1139 Y0.3889
X-1.12 Y0.3748
X-1.1237 Y0.3599
X-1.125 Y0.3445
Y0.2097
G3 X-1.1073 Y0.1733 R0.05
X-1.0685 Y0.1619 R0.05
G1 X-0.7931 Y0.1985
G3 X-0.7497 Y0.2469 R0.05
G1 X-0.7499 Y0.2619
X-0.75 Y0.2769
Y0.3599
X-0.7504 Y0.3687
X-0.7519 Y0.3801
X-0.7546 Y0.3924
X-0.7584 Y0.4051
X-0.7638 Y0.4191
X-0.7706 Y0.4332
X-0.7792 Y0.4477
X-0.7897 Y0.4627
X-0.8018 Y0.4772
X-0.8157 Y0.4915
X-0.8317 Y0.5054
X-0.8495 Y0.5186
X-0.8688 Y0.5306
X-0.8896 Y0.5413
X-0.9117 Y0.5506
X-0.9333 Y0.5576
X-0.9546 Y0.5627
X-0.9759 Y0.5661
X-0.9963 Y0.5676
X-1.0171 Y0.5675
X-1.0365 Y0.5658
X-1.0466 Y0.5641
X-1.0626 Y0.5599
X-1.0775 Y0.5531
X-1.0911 Y0.5437
X-1.1028 Y0.5321
X-1.1123 Y0.5187
X-1.1193 Y0.5037
X-1.1236 Y0.4878
X-1.125 Y0.4714
Y0.3445
G3 X-1.1087 Y0.3094 R0.05
X-1.0722 Y0.2964 R0.05
G1 X-0.7972 Y0.3118
G3 X-0.75 Y0.3599 R0.05
G1 Y0.4797
X-0.7506 Y0.4911
X-0.7521 Y0.5029
X-0.7548 Y0.5157
X-0.7588 Y0.5289
X-0.7644 Y0.5434
X-0.7715 Y0.5578
X-0.7803 Y0.5728
X-0.7821 Y0.5754
X-0.794 Y0.5897
X-0.808 Y0.602
X-0.8238 Y0.6119
X-0.8409 Y0.6191
X-0.859 Y0.6235
X-0.8776 Y0.625
G3 X-0.9258 Y0.5733 R0.05
X-0.9147 Y0.5436 R0.05
G1 X-0.8388 Y0.4499
G3 X-0.7685 Y0.4426 R0.05
X-0.75 Y0.4797 R0.05
G1 Y0.5612
Y0.5762
X-0.7509 Y0.5837
X-0.7529 Y0.5912
X-0.7565 Y0.5991
X-0.7613 Y0.6061
X-0.7664 Y0.6115
X-0.7714 Y0.6157
X-0.7763 Y0.6187
X-0.7811 Y0.6211
X-0.7864 Y0.623
X-0.7939 Y0.6246
X-0.8014 Y0.625
X-1.071
X-1.0785 Y0.6248
X-1.086 Y0.6236
X-1.0937 Y0.6211
X-1.101 Y0.6173
X-1.1073 Y0.6126
X-1.1108 Y0.6094
X-1.1137 Y0.6061
X-1.116 Y0.6032
X-1.1196 Y0.5972
X-1.1221 Y0.5912
X-1.1241 Y0.5837
X-1.125 Y0.5762
Y0.5313
Y0.4714
G3 X-1.1147 Y0.4428 R0.05
G1 X-1.1113 Y0.4383 Z-0.7497
X-1.108 Y0.434 Z-0.7487
X-1.1047 Y0.4297 Z-0.7472
X-1.1015 Y0.4256 Z-0.745
X-1.0986 Y0.4217 Z-0.7423
X-1.0958 Y0.418 Z-0.7391
X-1.0932 Y0.4147 Z-0.7354
X-1.091 Y0.4117 Z-0.7312
X-1.089 Y0.4092 Z-0.7266
X-1.0874 Y0.407 Z-0.7217
X-1.086 Y0.4053 Z-0.7165
X-1.0851 Y0.4041 Z-0.7111
X-1.0845 Y0.4033 Z-0.7056
X-1.0843 Y0.4031 Z-0.7
G0 Z0.2
X0.2591 Y-0.7062
Z-0.65
G1 Z-0.7 F126.1
X0.2594 Y-0.7061 Z-0.7056
X0.2604 Y-0.706 Z-0.7111
X0.2619 Y-0.7057 Z-0.7165
X0.264 Y-0.7054 Z-0.7217
X0.2667 Y-0.705 Z-0.7266
X0.2699 Y-0.7045 Z-0.7312
X0.2736 Y-0.704 Z-0.7354
X0.2777 Y-0.7033 Z-0.7391
X0.2823 Y-0.7027 Z-0.7423
X0.2871 Y-0.7019 Z-0.745
X0.2922 Y-0.7012 Z-0.7472
X0.2976 Y-0.7003 Z-0.7487
X0.303 Y-0.6995 Z-0.7497
X0.3086 Y-0.6987 Z-0.75
G3 X0.337 Y-0.6866 R0.0623
G1 X0.352 Y-0.6743
X0.363 Y-0.666
X0.367 Y-0.6634
X0.3892 Y-0.651
X0.3935 Y-0.6493
X0.3989 Y-0.6467
X0.406 Y-0.6426
X0.4134 Y-0.6375
X0.421 Y-0.6313
X0.4291 Y-0.6235
X0.4369 Y-0.6148
X0.445 Y-0.6041
X0.4525 Y-0.5922
X0.4597 Y-0.5785
X0.4664 Y-0.5629
X0.4721 Y-0.5461
X0.4769 Y-0.5267
X0.4803 Y-0.5064
X0.4822 Y-0.4839
X0.4823 Y-0.4592
X0.4803 Y-0.4339
X0.4759 Y-0.4062
X0.4688 Y-0.3769
X0.4591 Y-0.3475
X0.446 Y-0.3162
X0.4394 Y-0.3035
X0.4301 Y-0.2886
X0.4187 Y-0.2753
X0.4053 Y-0.2639
X0.3903 Y-0.2547
X0.3741 Y-0.2479
X0.3571 Y-0.2438
X0.3396 Y-0.2422
X0.3221 Y-0.2435
X0.2912 Y-0.2469
X0.2771 Y-0.2481
X0.2621 Y-0.2492
X0.2472 Y-0.25
X0.1543
G3 X0.1061 Y-0.3017 R0.05
X0.1156 Y-0.3294 R0.05
G1 X0.3355 Y-0.6318
G3 X0.3935 Y-0.6493 R0.05
G1 X0.4119 Y-0.6417
X0.4269 Y-0.6362
X0.4419 Y-0.6322
X0.4569 Y-0.629
X0.4582 Y-0.6288
X0.4642 Y-0.6278
X0.4719 Y-0.6257
X0.4804 Y-0.6226
X0.4896 Y-0.6184
X0.4989 Y-0.6131
X0.5091 Y-0.6063
X0.5191 Y-0.5983
X0.5297 Y-0.5885
X0.5401 Y-0.5771
X0.5502 Y-0.5641
X0.5602 Y-0.5486
X0.5693 Y-0.532
X0.5779 Y-0.5126
X0.5853 Y-0.4913
X0.5913 Y-0.4685
X0.5959 Y-0.4426
X0.5984 Y-0.4166
X0.5989 Y-0.3901
X0.5973 Y-0.3655
X0.5937 Y-0.341
X0.5884 Y-0.3181
X0.5816 Y-0.2963
X0.573 Y-0.2751
X0.5633 Y-0.2559
X0.56 Y-0.2505
X0.55 Y-0.2369
X0.5378 Y-0.2252
X0.5237 Y-0.2158
X0.5082 Y-0.209
X0.4918 Y-0.205
X0.4749 Y-0.2039
X0.4581 Y-0.2057
X0.4419 Y-0.2104
X0.4269 Y-0.2162
X0.3969 Y-0.2266
X0.382 Y-0.2312
G3 X0.3492 Y-0.2876 R0.05
G1 X0.4049 Y-0.5881
G3 X0.4582 Y-0.6288 R0.05
G1 X0.4868 Y-0.6255
X0.5018 Y-0.6252
X0.5168 Y-0.6251
X0.5318 Y-0.625
X0.5443 Y-0.6244
X0.5533 Y-0.6232
X0.5636 Y-0.621
X0.5743 Y-0.6178
X0.5858 Y-0.6133
X0.5981 Y-0.6073
X0.6104 Y-0.6001
X0.6237 Y-0.5908
X0.6366 Y-0.58
X0.6498 Y-0.5672
X0.6629 Y-0.5521
X0.6752 Y-0.5356
X0.6868 Y-0.5168
X0.6976 Y-0.4959
X0.7071 Y-0.4734
X0.7148 Y-0.4495
X0.7209 Y-0.4241
X0.7251 Y-0.3973
X0.7272 Y-0.3695
X0.7271 Y-0.3431
X0.7248 Y-0.317
X0.7208 Y-0.2932
X0.715 Y-0.2702
X0.7077 Y-0.2487
X0.699 Y-0.2286
X0.6889 Y-0.2095
X0.6778 Y-0.1921
X0.6653 Y-0.1756
X0.663 Y-0.1731
X0.6506 Y-0.1614
X0.6363 Y-0.1522
X0.6205 Y-0.1456
X0.6039 Y-0.1419
X0.5868 Y-0.1413
X0.5699 Y-0.1437
X0.5538 Y-0.149
X0.5388 Y-0.1571
X0.5318 Y-0.1616
X0.5018 Y-0.1804
G3 X0.4799 Y-0.2223 R0.05
G1 X0.4835 Y-0.5755
G3 X0.5318 Y-0.625 R0.05
G1 X0.6449
X0.6537 Y-0.6246
X0.6645 Y-0.6231
X0.6768 Y-0.6205
X0.6894 Y-0.6167
X0.703 Y-0.6114
X0.7172 Y-0.6045
X0.7316 Y-0.5961
X0.7467 Y-0.5854
X0.7616 Y-0.5731
X0.7764 Y-0.5587
X0.7913 Y-0.5416
X0.8052 Y-0.5228
X0.8181 Y-0.502
X0.8301 Y-0.4787
X0.8407 Y-0.4536
X0.8493 Y-0.427
X0.856 Y-0.3991
X0.8605 Y-0.3703
X0.8627 Y-0.3406
X0.8626 Y-0.3103
X0.86 Y-0.2799
X0.8549 Y-0.2499
X0.848 Y-0.2226
X0.8395 Y-0.1975
X0.8294 Y-0.174
X0.8183 Y-0.1532
X0.8055 Y-0.1331
X0.7923 Y-0.1157
X0.7774 Y-0.099
X0.7625 Y-0.0848
X0.746 Y-0.0714
X0.7413 Y-0.0682
X0.727 Y-0.0602
X0.7116 Y-0.0549
X0.6955 Y-0.0525
X0.6792 Y-0.0529
X0.6633 Y-0.0563
X0.6482 Y-0.0625
X0.6345 Y-0.0712
X0.6226 Y-0.0823
X0.5917 Y-0.1132
X0.5893 Y-0.1155
G3 X0.5752 Y-0.1529 R0.05
G1 X0.5967 Y-0.5776
G3 X0.6449 Y-0.625 R0.05
G1 X0.7647
X0.776 Y-0.6244
X0.7883 Y-0.6228
X0.8011 Y-0.6201
X0.8151 Y-0.6159
X0.8299 Y-0.6101
X0.845 Y-0.6028
X0.8612 Y-0.5932
X0.8771 Y-0.5821
X0.8935 Y-0.5685
X0.91 Y-0.5524
X0.9256 Y-0.5345
X0.9408 Y-0.5139
X0.9554 Y-0.4905
X0.9684 Y-0.4652
X0.9799 Y-0.4378
X0.9897 Y-0.4078
X0.9973 Y-0.3759
X1.0025 Y-0.3427
X1.0051 Y-0.3088
X1.0049 Y-0.2744
X1.0019 Y-0.24
X0.9962 Y-0.2059
X0.9877 Y-0.1725
X0.9767 Y-0.14
X0.9632 Y-0.1087
X0.9484 Y-0.0808
X0.932 Y-0.0552
X0.9156 Y-0.0334
X0.8982 Y-0.014
X0.8803 Y0.0031
X0.8623 Y0.0177
X0.8432 Y0.0307
X0.8247 Y0.0414
X0.805 Y0.0507
X0.7888 Y0.0552
X0.772 Y0.0569
X0.7552 Y0.0557
X0.7388 Y0.0515
X0.7234 Y0.0447
X0.7094 Y0.0353
X0.6973 Y0.0236
X0.6873 Y0.0099
X0.6768 Y-0.0075
X0.6666 Y-0.0237
X0.6639 Y-0.0278
G3 X0.6573 Y-0.0589 R0.05
G1 X0.7168 Y-0.5807
G3 X0.7647 Y-0.625 R0.05
G1 X0.8913
X0.9062 Y-0.6243
X0.9191 Y-0.6226
X0.9326 Y-0.6197
X0.9477 Y-0.6152
X0.9629 Y-0.6092
X0.9796 Y-0.6011
X0.9962 Y-0.5914
X1.0136 Y-0.5792
X1.0314 Y-0.5644
X1.0485 Y-0.5476
X1.066 Y-0.5276
X1.0828 Y-0.505
X1.0982 Y-0.4802
X1.1127 Y-0.4521
X1.1257 Y-0.421
X1.1364 Y-0.388
X1.1448 Y-0.3531
X1.1506 Y-0.3158
X1.1536 Y-0.2767
X1.1533 Y-0.2362
X1.1498 Y-0.1952
X1.1429 Y-0.1543
X1.1329 Y-0.1143
X1.1198 Y-0.0757
X1.1038 Y-0.0389
X1.0854 Y-0.004
X1.0645 Y0.0286
X1.0417 Y0.0588
X1.0179 Y0.0854
X0.9946 Y0.1076
X0.9722 Y0.1258
X0.9493 Y0.1415
X0.9268 Y0.1544
X0.9047 Y0.1648
X0.8821 Y0.1733
X0.8606 Y0.1795
X0.8383 Y0.184
X0.821 Y0.1845
X0.8039 Y0.1821
X0.7874 Y0.1769
X0.7721 Y0.1688
X0.7583 Y0.1583
X0.7466 Y0.1456
X0.7372 Y0.1311
X0.7304 Y0.1152
X0.7245 Y0.0973
X0.7194 Y0.0823
X0.7141 Y0.0673
G3 X0.7129 Y0.0422 R0.05
G1 X0.714 Y0.0368
X0.8441 Y-0.5853
G3 X0.8913 Y-0.625 R0.05
G1 X1.0261
X1.0425 Y-0.6242
X1.0555 Y-0.6225
X1.0702 Y-0.6193
X1.0855 Y-0.6148
X1.102 Y-0.6083
X1.1193 Y-0.5999
X1.1371 Y-0.5895
X1.156 Y-0.5762
X1.1742 Y-0.561
X1.1933 Y-0.5425
X1.2118 Y-0.5212
X1.2295 Y-0.4974
X1.2468 Y-0.4695
X1.2627 Y-0.4387
X1.2766 Y-0.4055
X1.2886 Y-0.3685
X1.2983 Y-0.3282
X1.305 Y-0.2856
X1.3082 Y-0.2416
X1.308 Y-0.1959
X1.3039 Y-0.1489
X1.2959 Y-0.1012
X1.2839 Y-0.0537
X1.268 Y-0.0068
X1.2485 Y0.0385
X1.2257 Y0.0814
X1.2003 Y0.1212
X1.1727 Y0.1576
X1.1434 Y0.1904
X1.1128 Y0.2196
X1.0811 Y0.2453
X1.0484 Y0.2677
X1.0185 Y0.2849
X0.9906 Y0.298
X0.9628 Y0.3085
X0.9368 Y0.316
X0.9115 Y0.3211
X0.8866 Y0.324
X0.8634 Y0.3249
X0.8398 Y0.3239
X0.8325 Y0.323
X0.8161 Y0.3195
X0.8006 Y0.3132
X0.7864 Y0.3042
X0.774 Y0.2929
X0.7638 Y0.2796
X0.7562 Y0.2647
X0.7512 Y0.2486
X0.7492 Y0.232
X0.7461 Y0.202
X0.7445 Y0.1871
X0.7435 Y0.1788
G3 X0.7457 Y0.16 R0.05
G1 X0.7492 Y0.1487
X0.9801 Y-0.5899
G3 X1.0261 Y-0.625 R0.05
G1 X1.1691
X1.184 Y-0.6243
X1.1975 Y-0.6225
X1.213 Y-0.6192
X1.2288 Y-0.6144
X1.2465 Y-0.6076
X1.2641 Y-0.599
X1.2835 Y-0.5876
X1.3026 Y-0.5742
X1.3226 Y-0.5576
X1.3428 Y-0.5379
X1.3623 Y-0.5155
X1.3822 Y-0.4887
X1.4005 Y-0.4592
X1.4175 Y-0.4262
X1.4332 Y-0.3886
X1.4466 Y-0.3475
X1.457 Y-0.3044
X1.4643 Y-0.2573
X1.4681 Y-0.2068
X1.4678 Y-0.1556
X1.4636 Y-0.1045
X1.4555 Y-0.0538
X1.4438 Y-0.0039
X1.4284 Y0.045
X1.4096 Y0.0927
X1.3875 Y0.139
X1.3622 Y0.1836
X1.3339 Y0.2263
X1.3025 Y0.2669
X1.2683 Y0.305
X1.2313 Y0.3405
X1.1926 Y0.3721
X1.1531 Y0.3993
X1.1132 Y0.4224
X1.0735 Y0.4412
X1.0342 Y0.4561
X0.9979 Y0.4667
X0.964 Y0.4736
X0.933 Y0.4774
X0.9051 Y0.4786
X0.8777 Y0.4775
X0.8528 Y0.4746
X0.8289 Y0.4697
X0.8273 Y0.4693
X0.8112 Y0.4632
X0.7963 Y0.4546
X0.7829 Y0.4438
X0.7715 Y0.4309
X0.7623 Y0.4164
X0.7555 Y0.4005
X0.7514 Y0.3838
X0.75 Y0.3667
Y0.2769
X0.7499 Y0.2605
X0.7497 Y0.2469
X0.7492 Y0.232
G3 X0.7538 Y0.2111 R0.05
G1 X0.7577 Y0.2026
X1.1255 Y-0.5959
G3 X1.1691 Y-0.625 R0.05
G1 X1.3107
X1.3305 Y-0.624
X1.345 Y-0.6221
X1.3606 Y-0.6188
X1.3775 Y-0.6137
X1.3954 Y-0.6067
X1.4143 Y-0.5976
X1.4344 Y-0.5858
X1.4546 Y-0.5716
X1.4762 Y-0.5537
X1.4968 Y-0.5335
X1.5183 Y-0.5089
X1.5389 Y-0.481
X1.5585 Y-0.4496
X1.5775 Y-0.4127
X1.5943 Y-0.3726
X1.6085 Y-0.3289
X1.6202 Y-0.2802
X1.6281 Y-0.2295
X1.6321 Y-0.1784
X1.6325 Y-0.1272
X1.6292 Y-0.076
X1.6224 Y-0.0252
X1.6124 Y0.0251
X1.5993 Y0.0747
X1.5832 Y0.1233
X1.5642 Y0.171
X1.5423 Y0.2173
X1.5177 Y0.2623
X1.4904 Y0.3058
X1.4607 Y0.3475
X1.4285 Y0.3874
X1.3939 Y0.4252
X1.3569 Y0.4608
X1.3177 Y0.4938
X1.2765 Y0.5243
X1.2333 Y0.5519
X1.1882 Y0.5764
X1.1415 Y0.5975
X1.0941 Y0.6146
X1.0713 Y0.6209
X1.0612 Y0.6232
X1.0509 Y0.6245
X1.0406 Y0.625
X0.9212
X0.8781 Y0.6228
X0.8528 Y0.6195
X0.8294 Y0.6145
X0.8213 Y0.6121
X0.8064 Y0.6063
X0.7926 Y0.5982
X0.7803 Y0.588
X0.7698 Y0.576
X0.7613 Y0.5625
X0.7551 Y0.5478
X0.7513 Y0.5323
X0.75 Y0.5163
G3 X0.8017 Y0.4681 R0.05
X0.8215 Y0.4729 R0.05
G1 X0.941 Y0.5299
G3 X0.9646 Y0.5965 R0.05
X0.9212 Y0.625 R0.05
G1 X0.8014
X0.7939 Y0.6246
X0.7864 Y0.623
X0.7811 Y0.6211
X0.7763 Y0.6187
X0.7714 Y0.6157
X0.7664 Y0.6115
X0.7613 Y0.6061
X0.7565 Y0.5991
X0.7529 Y0.5912
X0.7509 Y0.5837
X0.75 Y0.5762
Y0.5313
Y0.3667
G3 X0.756 Y0.3446 R0.05
G1 X0.7597 Y0.3377
X1.2685 Y-0.5989
G3 X1.3107 Y-0.625 R0.05
G1 X1.4605
X1.4817 Y-0.6239
X1.497 Y-0.6219
X1.5127 Y-0.6186
X1.5307 Y-0.6132
X1.5488 Y-0.6061
X1.5691 Y-0.5963
X1.5893 Y-0.5844
X1.6112 Y-0.569
X1.6329 Y-0.5509
X1.6553 Y-0.5292
X1.678 Y-0.5031
X1.6994 Y-0.4742
X1.7209 Y-0.4396
X1.741 Y-0.4006
X1.7588 Y-0.3581
X1.7745 Y-0.3102
X1.7864 Y-0.2603
X1.7946 Y-0.2097
X1.7992 Y-0.1587
X1.8004 Y-0.1074
X1.7984 Y-0.0562
X1.7933 Y-0.0051
X1.7852 Y0.0455
X1.7743 Y0.0956
X1.7606 Y0.145
X1.7444 Y0.1937
X1.7257 Y0.2414
X1.7044 Y0.288
X1.6808 Y0.3335
X1.6549 Y0.3778
X1.6268 Y0.4207
X1.5965 Y0.4621
X1.5642 Y0.5018
X1.5297 Y0.5398
X1.4933 Y0.5759
X1.4715 Y0.5954
X1.458 Y0.6057
X1.4432 Y0.614
X1.4273 Y0.6201
X1.4107 Y0.6238
X1.3938 Y0.625
X1.0406
G3 X0.9923 Y0.5733 R0.05
X0.9953 Y0.5579 R0.05
G1 X1.4153 Y-0.5922
G3 X1.4605 Y-0.625 R0.05
G1 X1.6252
X1.6367 Y-0.6244
X1.6525 Y-0.6224
X1.6688 Y-0.6189
X1.6872 Y-0.6134
X1.7062 Y-0.606
X1.7271 Y-0.5958
X1.7482 Y-0.5834
X1.7712 Y-0.5672
X1.7935 Y-0.5487
X1.8176 Y-0.5252
X1.8405 Y-0.499
X1.8636 Y-0.4677
X1.8864 Y-0.4311
X1.9073 Y-0.3905
X1.9265 Y-0.3448
X1.9424 Y-0.296
X1.9546 Y-0.2462
X1.9633 Y-0.1957
X1.9687 Y-0.1447
X1.971 Y-0.0935
X1.9703 Y-0.0422
X1.9668 Y0.0089
X1.9605 Y0.0598
X1.9516 Y0.1103
X1.9403 Y0.1603
X1.9266 Y0.2097
X1.9106 Y0.2584
X1.8923 Y0.3063
X1.8719 Y0.3533
X1.8493 Y0.3994
X1.8246 Y0.4443
X1.798 Y0.4882
X1.7695 Y0.5308
X1.7392 Y0.5721
X1.7312 Y0.5819
X1.7194 Y0.5944
X1.7058 Y0.6051
X1.6908 Y0.6137
X1.6747 Y0.6199
X1.6579 Y0.6237
X1.6407 Y0.625
X1.3938
G3 X1.3455 Y0.5733 R0.05
X1.3465 Y0.5652 R0.05
G1 X1.578 Y-0.5849
G3 X1.6252 Y-0.625 R0.05
G1 X1.775
X1.7965 Y-0.6239
X1.8123 Y-0.6219
X1.8294 Y-0.6182
X1.8478 Y-0.6127
X1.8678 Y-0.6049
X1.8887 Y-0.5947
X1.911 Y-0.5816
X1.9341 Y-0.5654
X1.9578 Y-0.5458
X1.9825 Y-0.5216
X2.0062 Y-0.4944
X2.0306 Y-0.4615
X2.0543 Y-0.4233
X2.0764 Y-0.3807
X2.0961 Y-0.3333
X2.1122 Y-0.2846
X2.1247 Y-0.2349
X2.134 Y-0.1845
X2.1402 Y-0.1336
X2.1435 Y-0.0824
X2.1441 Y-0.0312
X2.142 Y0.0201
X2.1374 Y0.0711
X2.1304 Y0.1219
X2.121 Y0.1723
X2.1095 Y0.2223
X2.0958 Y0.2717
X2.08 Y0.3205
X2.0623 Y0.3686
X2.0426 Y0.4159
X2.0209 Y0.4624
X1.9974 Y0.508
X1.9721 Y0.5526
X1.9597 Y0.5718
X1.9497 Y0.585
X1.9379 Y0.5967
X1.9246 Y0.6066
X1.9101 Y0.6145
X1.8945 Y0.6203
X1.8783 Y0.6238
X1.8618 Y0.625
X1.6407
G3 X1.6045 Y0.6076 R0.05
X1.5928 Y0.5692 R0.05
G1 X1.7271 Y-0.5808
G3 X1.775 Y-0.625 R0.05
G1 X1.9398
X1.9588 Y-0.624
X1.9746 Y-0.622
X1.9925 Y-0.6182
X2.0109 Y-0.6126
X2.0319 Y-0.6045
X2.0529 Y-0.5943
X2.0764 Y-0.5805
X2.0995 Y-0.5642
X2.1244 Y-0.5435
X2.1494 Y-0.5191
X2.1743 Y-0.4906
X2.1997 Y-0.4563
X2.2244 Y-0.4165
X2.2476 Y-0.3716
X2.2674 Y-0.3243
X2.2836 Y-0.2757
X2.2966 Y-0.2261
X2.3065 Y-0.1757
X2.3135 Y-0.125
X2.3177 Y-0.0739
X2.3194 Y-0.0226
X2.3187 Y0.0286
X2.3155 Y0.0798
X2.3101 Y0.1308
X2.3025 Y0.1815
X2.2929 Y0.2319
X2.2812 Y0.2818
X2.2677 Y0.3312
X2.2522 Y0.3801
X2.235 Y0.4284
X2.2159 Y0.476
X2.1949 Y0.5228
X2.179 Y0.5531
X2.1701 Y0.5675
X2.1591 Y0.5805
X2.1464 Y0.5917
X2.1322 Y0.601
X2.1168 Y0.6081
X2.1005 Y0.6129
X2.0896 Y0.6152
X2.0746 Y0.6179
X2.0433 Y0.6211
X2.0297 Y0.6222
X1.9997 Y0.6244
X1.9847 Y0.6247
X1.9548 Y0.625
X1.8618
G3 X1.8264 Y0.6085 R0.05
X1.8136 Y0.5716 R0.05
G1 X1.8917 Y-0.5784
G3 X1.9398 Y-0.625 R0.05
G1 X1.9548
X1.9847 Y-0.6247
X1.9997 Y-0.6244
X2.0297 Y-0.6222
X2.0433 Y-0.6211
X2.0746 Y-0.6179
X2.0896 Y-0.6152
X2.1196 Y-0.6087
X2.1291 Y-0.6061
X2.1645 Y-0.5952
X2.1795 Y-0.5897
X2.1945 Y-0.5839
X2.2094 Y-0.578
X2.213 Y-0.5762
X2.2394 Y-0.5618
X2.2606 Y-0.5488
X2.284 Y-0.5317
X2.3069 Y-0.512
X2.3313 Y-0.4874
X2.356 Y-0.458
X2.3801 Y-0.4243
X2.4041 Y-0.3841
X2.4268 Y-0.3381
X2.4458 Y-0.2905
X2.4614 Y-0.2417
X2.4738 Y-0.1919
X2.4833 Y-0.1416
X2.4901 Y-0.0907
X2.4942 Y-0.0396
X2.4958 Y0.0116
X2.4952 Y0.0629
X2.4923 Y0.1141
X2.4873 Y0.1651
X2.4803 Y0.2159
X2.4714 Y0.2664
X2.4632 Y0.3049
X2.4619 Y0.3104
X2.4603 Y0.3158
X2.4584 Y0.3212
X2.4582 Y0.3218
X2.4517 Y0.3367
X2.4341 Y0.3692
X2.4274 Y0.3816
X2.4191 Y0.3946
X2.4042 Y0.4162
X2.3892 Y0.4363
X2.3853 Y0.4415
X2.3742 Y0.4545
X2.3725 Y0.4565
X2.3592 Y0.4702
X2.343 Y0.4864
X2.3278 Y0.5014
X2.3143 Y0.5119
X2.2993 Y0.5231
X2.2843 Y0.5341
X2.2694 Y0.5451
X2.2676 Y0.5463
X2.2544 Y0.5536
X2.213 Y0.5762
X2.2094 Y0.578
X2.1945 Y0.5839
X2.1795 Y0.5897
X2.1645 Y0.5952
X2.1291 Y0.6061
X2.1196 Y0.6087
X2.1005 Y0.6129
G3 X2.0424 Y0.5726 R0.05
X2.0419 Y0.5579 R0.05
G1 X2.1673 Y-0.5229
G3 X2.2227 Y-0.5668 R0.05
X2.2394 Y-0.5618 R0.05
G1 X2.2544 Y-0.5536
X2.2676 Y-0.5463
X2.2694 Y-0.5451
X2.2882 Y-0.5313
X2.2993 Y-0.5231
X2.3143 Y-0.5119
X2.3278 Y-0.5014
X2.3442 Y-0.4852
X2.3592 Y-0.4702
X2.3725 Y-0.4565
X2.3742 Y-0.4545
X2.3853 Y-0.4415
X2.3965 Y-0.4265
X2.4042 Y-0.4162
X2.4191 Y-0.3946
X2.4274 Y-0.3816
X2.4355 Y-0.3667
X2.4517 Y-0.3367
X2.4582 Y-0.3218
X2.4694 Y-0.2918
X2.4742 Y-0.2769
X2.4831 Y-0.2469
X2.4865 Y-0.232
X2.4897 Y-0.217
X2.4929 Y-0.202
X2.494 Y-0.1911
X2.4958 Y-0.1721
X2.4971 Y-0.1571
X2.4992 Y-0.1272
X2.4999 Y-0.1122
X2.5 Y-0.0823
Y0.0823
X2.4999 Y0.1122
X2.4992 Y0.1272
X2.4971 Y0.1571
X2.4944 Y0.1871
X2.494 Y0.1911
X2.4929 Y0.202
X2.4897 Y0.217
X2.4865 Y0.232
X2.4831 Y0.2469
X2.4742 Y0.2769
X2.4694 Y0.2918
X2.4584 Y0.3212
G3 X2.4388 Y0.3444 R0.05
G1 X2.4341 Y0.3474 Z-0.7497
X2.4294 Y0.3504 Z-0.7487
X2.4248 Y0.3532 Z-0.7472
X2.4204 Y0.356 Z-0.745
X2.4163 Y0.3586 Z-0.7423
X2.4124 Y0.361 Z-0.7391
X2.4089 Y0.3632 Z-0.7354
X2.4057 Y0.3652 Z-0.7312
X2.4029 Y0.3669 Z-0.7266
X2.4006 Y0.3684 Z-0.7217
X2.3988 Y0.3695 Z-0.7165
X2.3975 Y0.3704 Z-0.7111
X2.3967 Y0.3709 Z-0.7056
X2.3965 Y0.371 Z-0.7
G0 Z0.2
X2.3756 Y1.3517
Z-0.65
G1 Z-0.7 F126.1
X2.3758 Y1.3515 Z-0.7056
X2.3764 Y1.3508 Z-0.7111
X2.3774 Y1.3496 Z-0.7165
X2.3788 Y1.348 Z-0.7217
X2.3806 Y1.346 Z-0.7266
X2.3828 Y1.3435 Z-0.7312
X2.3852 Y1.3407 Z-0.7354
X2.388 Y1.3376 Z-0.7391
X2.391 Y1.3342 Z-0.7423
X2.3943 Y1.3305 Z-0.745
X2.3977 Y1.3266 Z-0.7472
X2.4012 Y1.3225 Z-0.7487
X2.4049 Y1.3184 Z-0.7497
X2.4086 Y1.3142 Z-0.75
G3 X2.4341 Y1.2967 R0.0623
G1 X2.4408 Y1.2946
X2.4491 Y1.2911
X2.4791 Y1.2782
X2.554 Y1.2444
X2.5752 Y1.2347
X2.5839 Y1.23
X2.5989 Y1.2214
X2.6438 Y1.1943
X2.7007 Y1.1599
X2.7037 Y1.1578
X2.7337 Y1.1356
X2.7412 Y1.1299
X2.8086 Y1.0771
X2.8173 Y1.0701
X2.8386 Y1.0513
X2.85 Y1.0402
X2.9248 Y0.9653
X2.9284 Y0.9614
X2.9434 Y0.9441
X2.9507 Y0.9354
X3.0033 Y0.8682
X3.0093 Y0.8606
X3.0333 Y0.8278
X3.041 Y0.8157
X3.0727 Y0.7633
G3 X3.0963 Y0.7441 R0.05
G1 X3.1015 Y0.742 Z-0.7497
X3.1066 Y0.74 Z-0.7487
X3.1116 Y0.7381 Z-0.7472
X3.1165 Y0.7362 Z-0.745
X3.121 Y0.7344 Z-0.7423
X3.1253 Y0.7327 Z-0.7391
X3.1292 Y0.7312 Z-0.7354
X3.1327 Y0.7298 Z-0.7312
X3.1357 Y0.7286 Z-0.7266
X3.1382 Y0.7276 Z-0.7217
X3.1402 Y0.7269 Z-0.7165
X3.1417 Y0.7263 Z-0.7111
X3.1425 Y0.7259 Z-0.7056
X3.1428 Y0.7258 Z-0.7
G0 Z0.2
X-2.3756 Y-1.3517
Z-0.65
G1 Z-0.7 F126.1
X-2.3758 Y-1.3515 Z-0.7056
X-2.3764 Y-1.3508 Z-0.7111
X-2.3774 Y-1.3496 Z-0.7165
X-2.3788 Y-1.348 Z-0.7217
X-2.3806 Y-1.346 Z-0.7266
X-2.3828 Y-1.3435 Z-0.7312
X-2.3852 Y-1.3407 Z-0.7354
X-2.388 Y-1.3376 Z-0.7391
X-2.391 Y-1.3342 Z-0.7423
X-2.3943 Y-1.3305 Z-0.745
X-2.3977 Y-1.3266 Z-0.7472
X-2.4012 Y-1.3225 Z-0.7487
X-2.4049 Y-1.3184 Z-0.7497
X-2.4086 Y-1.3142 Z-0.75
G3 X-2.4341 Y-1.2967 R0.0623
G1 X-2.4408 Y-1.2946
X-2.4491 Y-1.2911
X-2.4791 Y-1.2782
X-2.554 Y-1.2444
X-2.5752 Y-1.2347
X-2.5839 Y-1.23
X-2.5989 Y-1.2214
X-2.6438 Y-1.1943
X-2.7007 Y-1.1599
X-2.7037 Y-1.1578
X-2.7337 Y-1.1356
X-2.7412 Y-1.1299
X-2.8086 Y-1.0771
X-2.8173 Y-1.0701
X-2.8386 Y-1.0513
X-2.85 Y-1.0402
X-2.9248 Y-0.9653
X-2.9284 Y-0.9614
X-2.9434 Y-0.9441
X-2.9507 Y-0.9354
X-3.0033 Y-0.8682
X-3.0093 Y-0.8606
X-3.0333 Y-0.8278
X-3.041 Y-0.8157
X-3.0729 Y-0.7629
X-3.0736 Y-0.7622
X-3.0744 Y-0.7617
G2 X-3.2925 Y-0.6314 R0.7316
X-3.3097 Y-0.5973 R0.05
G1 X-3.3809 Y0.3624
G2 X-3.369 Y0.3987 R0.05
X-3.1725 Y0.5598 R0.7316
G1 X-3.1717 Y0.5604
X-3.1712 Y0.5612
X-3.1681 Y0.5692
X-3.1587 Y0.5912
X-3.1531 Y0.6041
X-3.1185 Y0.681
X-3.1118 Y0.6959
X-3.104 Y0.7109
X-3.0932 Y0.7292
X-3.0772 Y0.7558
X-3.041 Y0.8157
X-3.0333 Y0.8278
X-3.0093 Y0.8606
X-3.0033 Y0.8682
X-2.9507 Y0.9354
X-2.9434 Y0.9441
X-2.9284 Y0.9614
X-2.9248 Y0.9653
X-2.85 Y1.0402
X-2.8386 Y1.0513
X-2.8173 Y1.0701
X-2.8086 Y1.0771
X-2.7412 Y1.1299
X-2.7337 Y1.1356
X-2.7037 Y1.1578
X-2.7007 Y1.1599
X-2.6378 Y1.198
G3 X-2.6186 Y1.2216 R0.05
G1 X-2.6165 Y1.2268 Z-0.7497
X-2.6145 Y1.2319 Z-0.7487
X-2.6125 Y1.237 Z-0.7472
X-2.6106 Y1.2418 Z-0.745
X-2.6089 Y1.2464 Z-0.7423
X-2.6072 Y1.2506 Z-0.7391
X-2.6057 Y1.2545 Z-0.7354
X-2.6043 Y1.258 Z-0.7312
X-2.6031 Y1.261 Z-0.7266
X-2.6021 Y1.2635 Z-0.7217
X-2.6013 Y1.2655 Z-0.7165
X-2.6008 Y1.267 Z-0.7111
X-2.6004 Y1.2678 Z-0.7056
X-2.6003 Y1.2681 Z-0.7
G0 Z0.6

(DRILL2)
S4584 M3
G0 X-0.25 Y0.625
Z0.6
Z0.2
G98 G81 X-0.25 Y0.625 Z-1.0751 R0.075 F17.2
Y0.25
X0.25
Y0.625
G80
Z0.6

M5
M30
